X:1
T:Title
%%score { 1 | ( 2 3 ) }
L:1/8
M:3/4
K:G
V:1 treble nm="Grand Piano"
V:2 bass 
V:3 bass 
V:1
 z2 z2[Q:1/4=100] DG | B3 [Ec] [DB][FA] | B2 G2 F>G | [FA]4 [GB]>[FA] |[M:2/4] G4 |[M:1/4] GA | %6
[M:3/4] B3 B d[Dd] | [Ed]2 [Ec]2 [EA]>[EA] | [B,DG]4 [A,DF]>[CDA] |[M:2/4] [G,B,DG]4 |[M:1/4] Bc | %11
[M:3/4] [Bd]3 d dc | [GB]4 AB | [Ac]3 c cB |[M:2/4] A4 |[M:1/4] [DGB][DAc] | %16
[M:3/4] [DBd]3 [DGB] [CFA][B,G] | [EGc]4 [DGB]>[CDA] | [B,DG]4 [A,DF]>[CDA] |[M:2/4] [G,B,DG]4 |] %20
V:2
 z2 z2 [G,B,][G,B,D] | [G,D]3 [C,G,] [D,G,][D,D] | [G,DG]2 [G,B,D]2[K:bass] [A,D]>[G,B,] | %3
 [D,C]4 [D,D]>[D,C] |[M:2/4] [G,B,]4 |[M:1/4][K:treble] [G,B,D][G,CD] | %6
[M:3/4] [G,DG]3 [G,DG] [G,B,G][K:bass][B,,G,] | [C,G,]2 [C,G,]2 [C,C]>[C,C] | D,4 D,>D, | %9
[M:2/4] G,,4 |[M:1/4][K:treble] GA |[M:3/4][K:bass] z2 z[K:treble] B BA | [G,,D,G,]4[K:treble] FG | %13
 z2 z A AG |[M:2/4] F4 |[M:1/4] G,[K:bass]G, |[M:3/4] G,3 G, D,E, | C,4 D,>D, | D,4 D,>D, | %19
[M:2/4] G,,4 |] %20
V:3
 x6 | x6 | x4[K:bass] x2 | x6 |[M:2/4] x4 |[M:1/4][K:treble] x2 |[M:3/4] x5[K:bass] x | x6 | x6 | %9
[M:2/4] x4 |[M:1/4][K:treble] x2 |[M:3/4][K:bass] [G,,D,G,]4[K:treble] z2 | x4[K:treble] x2 | %13
 [D,D]6- |[M:2/4] [D,D]4 |[M:1/4] x[K:bass] x |[M:3/4] x6 | x6 | x6 |[M:2/4] x4 |] %20

